src/svg/logo_twitter.svg

<svg fill="#000000" xmlns="http://www.w3.org/2000/svg"  viewBox="0 0 50 50" width="50px" height="50px"><path d="M 34.21875 5.46875 C 28.238281 5.46875 23.375 10.332031 23.375 16.3125 C 23.375 16.671875 23.464844 17.023438 23.5 17.375 C 16.105469 16.667969 9.566406 13.105469 5.125 7.65625 C 4.917969 7.394531 4.597656 7.253906 4.261719 7.277344 C 3.929688 7.300781 3.632813 7.492188 3.46875 7.78125 C 2.535156 9.386719 2 11.234375 2 13.21875 C 2 15.621094 2.859375 17.820313 4.1875 19.625 C 3.929688 19.511719 3.648438 19.449219 3.40625 19.3125 C 3.097656 19.148438 2.726563 19.15625 2.425781 19.335938 C 2.125 19.515625 1.941406 19.839844 1.9375 20.1875 L 1.9375 20.3125 C 1.9375 23.996094 3.84375 27.195313 6.65625 29.15625 C 6.625 29.152344 6.59375 29.164063 6.5625 29.15625 C 6.21875 29.097656 5.871094 29.21875 5.640625 29.480469 C 5.410156 29.742188 5.335938 30.105469 5.4375 30.4375 C 6.554688 33.910156 9.40625 36.5625 12.9375 37.53125 C 10.125 39.203125 6.863281 40.1875 3.34375 40.1875 C 2.582031 40.1875 1.851563 40.148438 1.125 40.0625 C 0.65625 40 0.207031 40.273438 0.0507813 40.71875 C -0.109375 41.164063 0.0664063 41.660156 0.46875 41.90625 C 4.980469 44.800781 10.335938 46.5 16.09375 46.5 C 25.425781 46.5 32.746094 42.601563 37.65625 37.03125 C 42.566406 31.460938 45.125 24.226563 45.125 17.46875 C 45.125 17.183594 45.101563 16.90625 45.09375 16.625 C 46.925781 15.222656 48.5625 13.578125 49.84375 11.65625 C 50.097656 11.285156 50.070313 10.789063 49.777344 10.445313 C 49.488281 10.101563 49 9.996094 48.59375 10.1875 C 48.078125 10.417969 47.476563 10.441406 46.9375 10.625 C 47.648438 9.675781 48.257813 8.652344 48.625 7.5 C 48.75 7.105469 48.613281 6.671875 48.289063 6.414063 C 47.964844 6.160156 47.511719 6.128906 47.15625 6.34375 C 45.449219 7.355469 43.558594 8.066406 41.5625 8.5 C 39.625 6.6875 37.074219 5.46875 34.21875 5.46875 Z M 34.21875 7.46875 C 36.769531 7.46875 39.074219 8.558594 40.6875 10.28125 C 40.929688 10.53125 41.285156 10.636719 41.625 10.5625 C 42.929688 10.304688 44.167969 9.925781 45.375 9.4375 C 44.679688 10.375 43.820313 11.175781 42.8125 11.78125 C 42.355469 12.003906 42.140625 12.53125 42.308594 13.011719 C 42.472656 13.488281 42.972656 13.765625 43.46875 13.65625 C 44.46875 13.535156 45.359375 13.128906 46.3125 12.875 C 45.457031 13.800781 44.519531 14.636719 43.5 15.375 C 43.222656 15.578125 43.070313 15.90625 43.09375 16.25 C 43.109375 16.65625 43.125 17.058594 43.125 17.46875 C 43.125 23.71875 40.726563 30.503906 36.15625 35.6875 C 31.585938 40.871094 24.875 44.5 16.09375 44.5 C 12.105469 44.5 8.339844 43.617188 4.9375 42.0625 C 9.15625 41.738281 13.046875 40.246094 16.1875 37.78125 C 16.515625 37.519531 16.644531 37.082031 16.511719 36.683594 C 16.378906 36.285156 16.011719 36.011719 15.59375 36 C 12.296875 35.941406 9.535156 34.023438 8.0625 31.3125 C 8.117188 31.3125 8.164063 31.3125 8.21875 31.3125 C 9.207031 31.3125 10.183594 31.1875 11.09375 30.9375 C 11.53125 30.808594 11.832031 30.402344 11.816406 29.945313 C 11.800781 29.488281 11.476563 29.097656 11.03125 29 C 7.472656 28.28125 4.804688 25.382813 4.1875 21.78125 C 5.195313 22.128906 6.226563 22.402344 7.34375 22.4375 C 7.800781 22.464844 8.214844 22.179688 8.355469 21.746094 C 8.496094 21.3125 8.324219 20.835938 7.9375 20.59375 C 5.5625 19.003906 4 16.296875 4 13.21875 C 4 12.078125 4.296875 11.03125 4.6875 10.03125 C 9.6875 15.519531 16.6875 19.164063 24.59375 19.5625 C 24.90625 19.578125 25.210938 19.449219 25.414063 19.210938 C 25.617188 18.96875 25.695313 18.648438 25.625 18.34375 C 25.472656 17.695313 25.375 17.007813 25.375 16.3125 C 25.375 11.414063 29.320313 7.46875 34.21875 7.46875 Z"/></svg>

<?xml version="1.0" encoding="utf-8"?>
<!-- Generator: Adobe Illustrator 26.4.1, SVG Export Plug-In . SVG Version: 6.00 Build 0)  -->
<svg version="1.1" id="레이어_1" xmlns="http://www.w3.org/2000/svg" xmlns:xlink="http://www.w3.org/1999/xlink" x="0px"
	 y="0px" viewBox="0 0 50 50" style="enable-background:new 0 0 50 50;" xml:space="preserve">
<style type="text/css">
	.st0{fill:#FFFFFF;}
</style>
<path class="st0" d="M34.2,5.5c-6,0-10.8,4.9-10.8,10.8c0,0.4,0.1,0.7,0.1,1.1c-7.4-0.7-13.9-4.3-18.4-9.7C4.9,7.4,4.6,7.3,4.3,7.3
	c-0.3,0-0.6,0.2-0.8,0.5C2.5,9.4,2,11.2,2,13.2c0,2.4,0.9,4.6,2.2,6.4c-0.3-0.1-0.5-0.2-0.8-0.3c-0.3-0.2-0.7-0.2-1,0
	c-0.3,0.2-0.5,0.5-0.5,0.9v0.1c0,3.7,1.9,6.9,4.7,8.8c0,0-0.1,0-0.1,0c-0.3-0.1-0.7,0.1-0.9,0.3s-0.3,0.6-0.2,1
	c1.1,3.5,4,6.1,7.5,7.1c-2.8,1.7-6.1,2.7-9.6,2.7c-0.8,0-1.5,0-2.2-0.1c-0.5-0.1-0.9,0.2-1.1,0.7c-0.2,0.4,0,0.9,0.4,1.2
	c4.5,2.9,9.9,4.6,15.6,4.6c9.3,0,16.7-3.9,21.6-9.5s7.5-12.8,7.5-19.6c0-0.3,0-0.6,0-0.8c1.8-1.4,3.5-3,4.8-5
	c0.3-0.4,0.2-0.9-0.1-1.2c-0.3-0.3-0.8-0.4-1.2-0.3c-0.5,0.2-1.1,0.3-1.7,0.4c0.7-0.9,1.3-2,1.7-3.1c0.1-0.4,0-0.8-0.3-1.1
	c-0.3-0.3-0.8-0.3-1.1-0.1c-1.7,1-3.6,1.7-5.6,2.2C39.6,6.7,37.1,5.5,34.2,5.5z M34.2,7.5c2.6,0,4.9,1.1,6.5,2.8
	c0.2,0.2,0.6,0.4,0.9,0.3c1.3-0.3,2.5-0.6,3.8-1.1c-0.7,0.9-1.6,1.7-2.6,2.3c-0.5,0.2-0.7,0.8-0.5,1.2c0.2,0.5,0.7,0.8,1.2,0.6
	c1-0.1,1.9-0.5,2.8-0.8c-0.9,0.9-1.8,1.8-2.8,2.5c-0.3,0.2-0.4,0.5-0.4,0.9c0,0.4,0,0.8,0,1.2c0,6.2-2.4,13-7,18.2
	s-11.3,8.8-20.1,8.8c-4,0-7.8-0.9-11.2-2.4c4.2-0.3,8.1-1.8,11.2-4.3c0.3-0.3,0.5-0.7,0.3-1.1S16,36,15.6,36c-3.3-0.1-6.1-2-7.5-4.7
	c0.1,0,0.1,0,0.2,0c1,0,2-0.1,2.9-0.4c0.4-0.1,0.7-0.5,0.7-1S11.5,29.1,11,29c-3.6-0.7-6.2-3.6-6.8-7.2c1,0.3,2,0.6,3.2,0.7
	c0.5,0,0.9-0.3,1-0.7s0-0.9-0.4-1.2C5.6,19,4,16.3,4,13.2C4,12.1,4.3,11,4.7,10c5,5.5,12,9.1,19.9,9.5c0.3,0,0.6-0.1,0.8-0.4
	c0.2-0.2,0.3-0.6,0.2-0.9c-0.2-0.6-0.2-1.3-0.2-2C25.4,11.4,29.3,7.5,34.2,7.5z"/>
</svg>
